src/statics/icons/category-icon.svg

<svg xmlns="http://www.w3.org/2000/svg" xmlns:xlink="http://www.w3.org/1999/xlink" width="50" height="50" viewBox="0 0 50 50">
  <defs>
    <clipPath id="clip-category-icon">
      <rect width="50" height="50"/>
    </clipPath>
  </defs>
  <g id="category-icon" clip-path="url(#clip-category-icon)">
    <g id="Subtraction_4" data-name="Subtraction 4" transform="translate(3.676 32.517) rotate(-45)">
      <path d="M 28.46753311157227 18.13383865356445 L 0.5000112056732178 18.13382911682129 L 0.5000017285346985 0.4999994933605194 L 28.47872924804688 0.5000092387199402 L 36.58301544189453 7.73567008972168 C 36.90810012817383 8.061047554016113 37.386962890625 8.69205379486084 37.386962890625 9.021499633789063 C 37.386962890625 9.347421646118164 36.97842025756836 9.912890434265137 36.70067977905273 10.19464778900146 L 28.46753311157227 18.13383865356445 Z M 28.66946220397949 5.5194993019104 C 26.81244087219238 5.5194993019104 25.30165100097656 7.030299186706543 25.30165100097656 8.8873291015625 C 25.30165100097656 10.74364948272705 26.81244087219238 12.25386905670166 28.66946220397949 12.25386905670166 C 29.56741142272949 12.25387954711914 30.41245079040527 11.90335941314697 31.04890060424805 11.26687908172607 C 31.68536186218262 10.63040924072266 32.03586959838867 9.78532886505127 32.03586959838867 8.8873291015625 C 32.03586959838867 7.030299186706543 30.52570152282715 5.5194993019104 28.66946220397949 5.5194993019104 Z" stroke="none"/>
      <path d="M 28.2657299041748 17.63383865356445 L 36.34802627563477 9.840096473693848 C 36.59774017333984 9.583306312561035 36.85585021972656 9.191633224487305 36.88524627685547 9.027281761169434 C 36.8441047668457 8.844794273376465 36.53390502929688 8.398987770080566 36.23749160766602 8.09745979309082 L 28.28800964355469 1.000009179115295 L 1.000002026557922 0.9999997019767761 L 1.000010967254639 17.63382911682129 L 28.2657299041748 17.63383865356445 M 28.66946220397949 5.0194993019104 C 30.80141067504883 5.0194993019104 32.53586959838867 6.754599094390869 32.53586959838867 8.8873291015625 C 32.53586959838867 9.918889045715332 32.13335037231445 10.88951969146729 31.40246200561523 11.62042903900146 C 30.67157173156738 12.35134887695313 29.70097160339355 12.75387954711914 28.66946220397949 12.75386905670166 C 26.53674125671387 12.75386905670166 24.80165100097656 11.01934909820557 24.80165100097656 8.8873291015625 C 24.80165100097656 6.754599094390869 26.53674125671387 5.0194993019104 28.66946220397949 5.0194993019104 M 28.66947174072266 18.63383865356445 L 28.66862106323242 18.63383865356445 L 28.66947174072266 18.63383865356445 Z M 28.66947174072266 18.63383865356445 L 1.144531233876478e-05 18.63382911682129 L 1.44531247769919e-06 -6.732177553203655e-07 L 28.66946220397949 9.326782674179412e-06 L 36.92588043212891 7.371499538421631 C 36.93542098999023 7.380799293518066 37.886962890625 8.328598976135254 37.886962890625 9.021499633789063 C 37.886962890625 9.70634937286377 37.06064987182617 10.54199886322021 37.05222320556641 10.55023956298828 L 28.66975212097168 18.6334400177002 L 28.66947174072266 18.63383865356445 Z M 28.66946220397949 6.0194993019104 C 27.08786201477051 6.0194993019104 25.80165100097656 7.305999279022217 25.80165100097656 8.8873291015625 C 25.80165100097656 10.46793937683105 27.08787155151367 11.75386905670166 28.66946220397949 11.75386905670166 C 30.24994087219238 11.75387954711914 31.5358715057373 10.46794891357422 31.5358715057373 8.8873291015625 C 31.5358715057373 7.305999279022217 30.24993133544922 6.0194993019104 28.66946220397949 6.0194993019104 Z" stroke="none"/>
    </g>
    <g id="Subtraction_3" data-name="Subtraction 3" transform="translate(18.344 38.183) rotate(-45)">
      <path d="M 23.17300605773926 9.202736854553223 L 0.5000015497207642 9.202726364135742 L 0.5000015497207642 6.105456829071045 L 23.71297073364258 6.105466365814209 L 23.91479110717773 6.105466365814209 L 24.06006240844727 5.965366363525391 L 29.53833770751953 0.6820354461669922 L 29.76383972167969 0.8834009766578674 C 29.99357032775879 1.115517497062683 30.39206123352051 1.631576538085938 30.39206123352051 1.864256501197815 C 30.39206123352051 2.095990180969238 30.08383941650391 2.529669761657715 29.86003494262695 2.755516529083252 L 23.17300605773926 9.202736854553223 Z" stroke="none"/>
      <path d="M 22.97122573852539 8.702735900878906 L 29.50762939453125 2.400728702545166 C 29.66147232055664 2.242910861968994 29.82901573181152 2.004135608673096 29.88070487976074 1.874410033226013 C 29.82987213134766 1.756636142730713 29.68909454345703 1.553757905960083 29.53799247741699 1.377007484436035 L 24.40715217590332 6.325266361236572 L 24.11661148071289 6.605466365814209 L 23.71297073364258 6.605466365814209 L 1.000001549720764 6.605456829071045 L 1.000001549720764 8.702727317810059 L 22.97122573852539 8.702735900878906 M 23.37492179870605 9.702736854553223 L 23.37408065795898 9.702736854553223 L 23.37492179870605 9.702736854553223 Z M 23.37492179870605 9.702736854553223 L 1.570434619679872e-06 9.702726364135742 L 1.570434619679872e-06 5.605456352233887 L 23.71297073364258 5.605466365814209 L 29.5252513885498 1.653350773267448e-05 L 30.10758209228516 0.5200165510177612 C 30.11544227600098 0.5275365114212036 30.89206123352051 1.304436564445496 30.89206123352051 1.864256501197815 C 30.89206123352051 2.428976535797119 30.21764183044434 3.105196475982666 30.21090126037598 3.111766576766968 L 23.37520217895508 9.702336311340332 L 23.37492179870605 9.702736854553223 Z" stroke="none"/>
    </g>
    <circle id="Ellipse_65" data-name="Ellipse 65" cx="1.433" cy="1.433" r="1.433" transform="translate(28.205 18.529) rotate(-45)"/>
    <path id="Path_139" data-name="Path 139" d="M0,7.82S6,.331,8.965.024s3.992,2.405,3.992,3.838-.717,4.5-2.917,5.629a7.572,7.572,0,0,1-4.4.716" transform="translate(24.703 12.999) rotate(-45)" fill="none" stroke="#000" stroke-width="1"/>
  </g>
</svg>

<svg xmlns="http://www.w3.org/2000/svg" xmlns:xlink="http://www.w3.org/1999/xlink" width="50" height="50" viewBox="0 0 50 50"><defs><style>.a{clip-path:url(#b);}.b{fill:#142b26;}.c{fill:none;stroke:#142b26;}</style><clipPath id="b"><rect width="50" height="50"/></clipPath></defs><g id="a" class="a"><path class="b" d="M28.669,18.634H0V0H28.669l8.256,7.371c.01.009.961.957.961,1.65a2.923,2.923,0,0,1-.835,1.529L28.67,18.633Zm0-12.614a2.867,2.867,0,1,0,2.866,2.868A2.871,2.871,0,0,0,28.669,6.019Z" transform="translate(3.676 32.517) rotate(-45)"/><path class="b" d="M23.375,9.7H0v-4.1H23.713L29.525,0l.582.52c.008.008.784.784.784,1.344a2.359,2.359,0,0,1-.681,1.248L23.375,9.7Z" transform="translate(18.344 38.183) rotate(-45)"/><circle class="b" cx="1.433" cy="1.433" r="1.433" transform="translate(28.205 18.529) rotate(-45)"/><path class="c" d="M0,7.82S6,.331,8.965.024s3.992,2.405,3.992,3.838-.717,4.5-2.917,5.629a7.572,7.572,0,0,1-4.4.716" transform="translate(24.703 12.999) rotate(-45)"/></g></svg>
